img/svg/icon-font/file-done.svg

<svg width="22" height="22" viewBox="0 0 22 22" fill="none" xmlns="http://www.w3.org/2000/svg">
<path d="M20.7863 17.2575C20.2792 20.0055 17.8802 22 15.082 22C11.8835 22 9.28125 19.3977 9.28125 16.1992C9.28125 13.0007 11.8835 10.3984 15.082 10.3984C15.6124 10.3984 16.1385 10.4703 16.6452 10.6118C17.1024 10.7393 17.3694 11.2133 17.2417 11.6705C17.1141 12.1278 16.64 12.3948 16.1829 12.2671C15.8266 12.1677 15.4562 12.1172 15.082 12.1172C12.8312 12.1172 11 13.9484 11 16.1992C11 18.45 12.8312 20.2812 15.082 20.2812C17.0512 20.2812 18.7394 18.8784 19.0961 16.9456C19.1824 16.4789 19.6305 16.1702 20.0971 16.2565C20.5639 16.3426 20.8724 16.7907 20.7863 17.2575ZM8.07812 20.2812H4.64062C3.69296 20.2812 2.92187 19.5102 2.92187 18.5625V7.26172H5.45703C7.11552 7.26172 8.46484 5.9124 8.46484 4.25391C8.46484 3.77924 8.08014 3.39453 7.60547 3.39453C7.1308 3.39453 6.74609 3.77924 6.74609 4.25391C6.74609 4.96474 6.16786 5.54297 5.45703 5.54297H3.06924C3.1488 5.36874 3.25908 5.20795 3.39789 5.06796L6.23567 2.205C6.54182 1.896 6.96715 1.71875 7.40221 1.71875H15.2061C16.1539 1.71875 16.9248 2.48984 16.9248 3.4375V7.99219C16.9248 8.46686 17.3097 8.85156 17.7842 8.85156C18.2589 8.85156 18.6436 8.46686 18.6436 7.99219V3.4375C18.6436 1.54201 17.1016 0 15.2061 0H7.40221C6.51178 0 5.64166 0.362717 5.01492 0.994995L2.17714 3.85796C1.54906 4.49174 1.20312 5.33199 1.20312 6.22426V18.5625C1.20312 20.458 2.74513 22 4.64062 22H8.07812C8.55279 22 8.9375 21.6153 8.9375 21.1406C8.9375 20.666 8.55279 20.2812 8.07812 20.2812ZM13.9709 15.2049C13.6352 14.8692 13.0912 14.8692 12.7557 15.2049C12.42 15.5404 12.42 16.0846 12.7555 16.4201L14.0209 17.6855C14.3136 17.9782 14.699 18.1246 15.0844 18.1246C15.4672 18.1246 15.8501 17.9801 16.1423 17.6909L19.8975 13.9741C20.2349 13.6402 20.2376 13.0961 19.9038 12.7587C19.5699 12.4213 19.0258 12.4185 18.6884 12.7525L15.0852 16.3191L13.9709 15.2049Z" fill="#4C51CB"/>
</svg>

<svg width="22" height="22" fill="none" xmlns="http://www.w3.org/2000/svg"><path d="M20.786 17.258A5.798 5.798 0 0115.082 22a5.807 5.807 0 01-5.8-5.8 5.807 5.807 0 017.363-5.588.859.859 0 11-.462 1.655A4.087 4.087 0 0011 16.2a4.087 4.087 0 004.082 4.082 4.08 4.08 0 004.014-3.335.86.86 0 011.69.311zM8.078 20.28H4.641a1.72 1.72 0 01-1.72-1.718V7.261h2.536a3.011 3.011 0 003.008-3.008.86.86 0 10-1.719 0 1.29 1.29 0 01-1.289 1.289H3.069c.08-.174.19-.335.329-.475l2.838-2.863a1.653 1.653 0 011.166-.486h7.804a1.72 1.72 0 011.719 1.718v4.555a.86.86 0 001.719 0V3.438A3.441 3.441 0 0015.206 0H7.402c-.89 0-1.76.363-2.387.995L2.177 3.858a3.341 3.341 0 00-.974 2.366v12.338A3.441 3.441 0 004.641 22h3.437a.86.86 0 100-1.719zm5.893-5.076a.859.859 0 10-1.216 1.215l1.266 1.265a1.5 1.5 0 001.063.44 1.5 1.5 0 001.058-.434l3.756-3.717a.86.86 0 00-1.21-1.222l-3.603 3.567-1.114-1.114z" fill="#4C51CB"/></svg>
